%%%
  VERSION:1
  LANGUAGE:ENGLISH
%%%

MODULE TEST_
  CONST jointtarget JT_q1:=[[23.9625,6.7721,-7.1508,90.852,-23.9653,-90.9324],[9E+09,9E+09,9E+09,9E+09,9E+09,9E+09]];
  CONST jointtarget JT_q2:=[[23.9625,6.7721,-7.1508,-89.148,23.9653,89.0676],[9E+09,9E+09,9E+09,9E+09,9E+09,9E+09]];
  CONST jointtarget JT_q3:=[[23.9625,92.3536,-172.849,155.742,-81.3214,-176.11],[9E+09,9E+09,9E+09,9E+09,9E+09,9E+09]];
  CONST jointtarget JT_q4:=[[23.9625,92.3536,-172.849,-24.2578,81.3214,3.8899],[9E+09,9E+09,9E+09,9E+09,9E+09,9E+09]];
  CONST jointtarget JT_q5:=[[-156.038,-83.6501,-38.9353,-27.8105,-60.5187,-165.448],[9E+09,9E+09,9E+09,9E+09,9E+09,9E+09]];
  CONST jointtarget JT_q6:=[[-156.038,-83.6501,-38.9353,152.189,60.5187,14.5523],[9E+09,9E+09,9E+09,9E+09,9E+09,9E+09]];
  CONST jointtarget JT_q7:=[[-156.038,-31.1061,-141.065,-72.9599,-25.1372,-108.704],[9E+09,9E+09,9E+09,9E+09,9E+09,9E+09]];
  CONST jointtarget JT_q8:=[[-156.038,-31.1061,-141.065,107.04,25.1372,71.296],[9E+09,9E+09,9E+09,9E+09,9E+09,9E+09]];

  PROC main()
    MoveAbsJ JT_q1,v1000,fine,tool0\WObj:=wobj0;
    MoveJ [[515.02,199.99,711.98],[0.707095,2.6E-05,0.707119,9.3E-05],[0,1,-2,1],[9E+09,9E+09,9E+09,9E+09,9E+09,9E+09]],v1000,fine,tool0;
    MoveAbsJ JT_q2,v1000,fine,tool0\WObj:=wobj0;
    MoveJ [[515.01,200.01,711.99],[0.707101,-0.00012,0.707113,-2.2E-05],[0,-1,0,0],[9E+09,9E+09,9E+09,9E+09,9E+09,9E+09]],v1000,fine,tool0;
    MoveAbsJ JT_q3,v1000,fine,tool0\WObj:=wobj0;
    MoveJ [[515.04,200,711.97],[0.707104,1E-05,0.70711,-2.4E-05],[0,1,-2,3],[9E+09,9E+09,9E+09,9E+09,9E+09,9E+09]],v1000,fine,tool0;
    MoveAbsJ JT_q4,v1000,fine,tool0\WObj:=wobj0;
    MoveJ [[515.04,200.02,711.97],[0.707011,-2.1E-05,0.707203,-1.2E-05],[0,-1,0,2],[9E+09,9E+09,9E+09,9E+09,9E+09,9E+09]],v1000,fine,tool0;
    MoveAbsJ JT_q5,v1000,fine,tool0\WObj:=wobj0;
    MoveJ [[515.02,200.03,711.94],[0.707055,-4E-06,0.707159,-6E-06],[-2,-1,-2,5],[9E+09,9E+09,9E+09,9E+09,9E+09,9E+09]],v1000,fine,tool0;
    MoveAbsJ JT_q6,v1000,fine,tool0\WObj:=wobj0;
    MoveJ [[515.02,200.02,711.97],[0.707093,-3.4E-05,0.707121,-1.2E-05],[-2,1,0,4],[9E+09,9E+09,9E+09,9E+09,9E+09,9E+09]],v1000,fine,tool0;
    MoveAbsJ JT_q7,v1000,fine,tool0\WObj:=wobj0;
    MoveJ [[515.01,200.02,711.97],[0.707078,-3.3E-05,0.707136,1E-06],[-2,-1,-2,7],[9E+09,9E+09,9E+09,9E+09,9E+09,9E+09]],v1000,fine,tool0;
    MoveAbsJ JT_q8,v1000,fine,tool0\WObj:=wobj0;
    MoveJ [[515,200.03,711.98],[0.70712,-0.000243,0.707094,-9E-05],[-2,1,0,6],[9E+09,9E+09,9E+09,9E+09,9E+09,9E+09]],v1000,fine,tool0;
  ENDPROC
ENDMODULE

